X:1
T:Growling Man Woman
L:1/8
M:2/2
I:linebreak $
K:G
V:1 treble nm="Voice" snm="Voice"
V:1
 A,B, |"Am" CA,EA, CA,A,C |"G" B,G,DG, B,G,G,B, |"Am" CA,EA, CA,A,C | B,A,G,B,"Am" A,2 A,B, |$ %5
 CA,EA, CA,A,C | B,G,DG, B,A,G,B, | CA,EA, CA,A,C | B,A,G,B, A,2 ::$ ^c2 d2 | efed ^cdef | %11
 gedc BGGB | efed ^cAcd | eaa^g a2 [Fe]2 |$ gfed ^cdef | gedc BGGB | c2 (3BcB AGED | %17
"Em" GEDB,"Am" A,2 :| %18
